<?xml version="1.0" encoding="utf-8"?>
<map version="1.10" tiledversion="1.11.0" orientation="isometric" renderorder="right-down" width="15" height="15" tilewidth="64" tileheight="32" infinite="0" nextlayerid="6" nextobjectid="1">
 <properties>
  <property name="arena" type="string" value="crosshaven"/>
  <property name="playable_size" type="string" value="15x15"/>
  <property name="orientation_note" type="string" value="Tiled isometric diamond; screen N=up-right E=down-right; cell_to_local=((x-y)*32,(x+y)*16)"/>
  <property name="tags_file" type="string" value="crosshaven_15x15_tags.json"/>
 </properties>
 <tileset firstgid="1" source="tileset_koliseo_base.tsx"/>
 <layer id="1" name="ground" width="15" height="15">
  <data encoding="csv">
1,1,1,1,1,1,1,1,1,1,1,1,1,1,1,
1,1,1,1,1,1,1,1,1,1,1,1,1,1,1,
1,1,1,1,1,1,1,1,1,1,1,1,1,1,1,
1,1,1,1,1,1,1,1,1,1,1,1,1,1,1,
1,1,1,1,1,1,1,1,1,1,1,1,1,1,1,
1,1,1,1,1,1,1,1,1,1,1,1,1,1,1,
1,1,1,1,1,1,1,1,1,1,1,1,1,1,1,
1,1,1,1,1,1,1,1,1,1,1,1,1,1,1,
1,1,1,1,1,1,1,1,1,1,1,1,1,1,1,
1,1,1,1,1,1,1,1,1,1,1,1,1,1,1,
1,1,1,1,1,1,1,1,1,1,1,1,1,1,1,
1,1,1,1,1,1,1,1,1,1,1,1,1,1,1,
1,1,1,1,1,1,1,1,1,1,1,1,1,1,1,
1,1,1,1,1,1,1,1,1,1,1,1,1,1,1,
1,1,1,1,1,1,1,1,1,1,1,1,1,1,1
</data>
 </layer>
 <layer id="2" name="terrain" width="15" height="15">
  <data encoding="csv">
0,0,0,0,0,0,0,0,0,0,0,0,0,0,0,
0,2,2,0,0,0,0,0,0,0,0,2,2,0,0,
0,2,2,2,0,2,2,0,0,0,0,0,2,0,0,
0,0,0,0,0,2,2,0,0,0,0,0,0,0,0,
3,0,0,0,0,0,0,0,0,0,3,3,0,0,0,
3,0,2,2,0,0,0,0,0,0,3,3,0,2,0,
0,0,2,2,0,0,0,0,0,0,0,0,0,2,0,
0,0,0,0,3,3,0,0,0,0,0,0,3,3,0,
0,0,0,0,3,0,0,0,0,0,0,0,3,0,0,
2,0,0,0,0,0,0,0,0,0,0,0,0,0,0,
0,0,0,0,0,2,2,0,0,0,0,0,0,3,3,
0,0,0,0,0,2,2,0,0,0,0,0,0,0,0,
0,2,2,0,0,0,0,0,0,0,0,2,2,0,0,
0,2,0,0,0,0,0,0,3,3,0,2,2,0,0,
0,0,0,0,0,0,0,0,3,3,0,0,0,0,0
</data>
 </layer>
 <layer id="3" name="elevation" width="15" height="15">
  <data encoding="csv">
0,0,0,0,0,0,0,0,0,0,0,0,0,0,0,
0,0,0,0,0,0,0,0,0,0,0,0,0,0,0,
0,0,0,0,0,0,0,0,0,0,0,0,0,0,0,
0,0,0,0,6,0,0,6,0,0,6,0,0,0,0,
0,0,0,0,0,0,0,7,0,0,0,0,0,0,0,
0,0,0,0,0,6,0,0,0,6,0,0,0,0,0,
0,0,0,0,0,0,0,0,0,0,0,0,0,0,0,
0,0,0,6,0,0,0,6,0,0,0,6,0,0,0,
0,0,6,0,0,0,0,0,0,0,0,0,0,0,0,
0,0,0,0,0,6,0,6,0,6,0,0,0,0,0,
0,0,0,0,0,0,0,7,0,0,0,0,0,0,0,
0,0,0,0,6,0,0,6,6,0,6,0,0,0,0,
0,0,0,0,0,0,0,0,0,0,0,0,0,0,0,
0,0,0,0,0,0,0,0,0,0,0,0,0,0,0,
0,0,0,0,0,0,0,0,0,0,0,0,0,0,0
</data>
 </layer>
 <layer id="4" name="props_paint" width="15" height="15">
  <data encoding="csv">
9,12,0,0,0,0,11,0,0,0,0,0,0,0,9,
0,0,0,0,0,0,0,0,0,13,0,0,13,0,0,
0,0,0,0,0,0,0,0,0,0,0,0,0,0,0,
0,0,0,13,0,0,0,0,0,0,0,11,0,0,0,
0,0,0,0,0,0,0,0,0,0,0,0,0,0,14,
0,0,0,0,0,0,0,0,0,0,0,0,0,0,0,
12,0,0,0,15,0,0,0,15,0,0,0,0,0,0,
0,11,0,0,0,0,0,0,0,0,0,0,0,0,10,
0,0,0,0,0,0,15,0,0,0,15,0,0,13,0,
0,0,0,0,0,0,0,0,0,0,0,0,0,0,0,
14,0,9,0,0,0,0,0,0,0,0,0,13,0,0,
0,0,0,0,0,0,0,0,0,0,0,0,0,0,0,
0,0,0,12,0,0,0,0,0,0,14,0,0,0,0,
0,0,13,0,0,12,11,0,0,0,0,0,0,0,0,
9,0,0,0,9,0,0,0,11,0,0,0,0,12,13
</data>
 </layer>
 <layer id="5" name="meta" width="15" height="15">
  <data encoding="csv">
0,0,0,0,0,0,0,0,0,0,0,0,0,0,0,
0,0,0,0,0,0,0,0,0,0,0,0,0,0,0,
0,0,0,0,0,0,0,0,0,0,0,0,0,0,0,
0,0,0,0,0,0,0,0,0,0,0,0,0,0,0,
0,0,0,0,0,0,0,0,0,0,0,0,0,0,0,
0,0,0,0,0,0,0,0,0,0,0,0,0,0,0,
0,0,0,0,0,0,0,0,0,0,0,0,0,0,0,
0,0,0,0,0,0,0,0,0,0,0,0,0,0,0,
0,0,0,0,0,0,0,0,0,0,0,0,0,0,0,
0,0,0,0,0,0,0,0,0,0,0,0,0,0,0,
0,0,0,0,0,0,0,0,0,0,0,0,0,0,0,
0,0,0,0,0,0,0,0,0,0,0,0,0,0,0,
0,0,0,0,0,0,0,0,0,0,0,0,0,0,0,
0,0,0,0,0,0,0,0,0,0,0,0,0,0,0,
0,0,0,0,0,0,0,0,0,0,0,0,0,0,0
</data>
 </layer>
</map>
