<?xml version="1.0" encoding="utf-8"?>
<map version="1.10" tiledversion="1.11.0" orientation="isometric" renderorder="right-down" width="15" height="15" tilewidth="64" tileheight="32" infinite="0" nextlayerid="6" nextobjectid="1">
 <properties>
  <property name="arena" type="string" value="stormspire"/>
  <property name="playable_size" type="string" value="15x15"/>
  <property name="orientation_note" type="string" value="Tiled isometric diamond; screen N=up-right E=down-right; cell_to_local=((x-y)*32,(x+y)*16)"/>
  <property name="tags_file" type="string" value="stormspire_15x15_tags.json"/>
 </properties>
 <tileset firstgid="1" source="tileset_koliseo_base.tsx"/>
 <layer id="1" name="ground" width="15" height="15">
  <data encoding="csv">
48,48,48,48,48,48,48,48,48,48,48,48,48,48,48,
48,48,48,48,48,48,48,48,48,48,48,48,48,48,48,
48,48,48,48,48,48,48,48,48,48,48,48,48,48,48,
48,48,48,48,48,48,48,48,48,48,48,48,48,48,48,
48,48,48,48,48,48,48,48,48,48,48,48,48,48,48,
48,48,48,48,48,48,48,48,48,48,48,48,48,48,48,
48,48,48,48,48,48,48,48,48,48,48,48,48,48,48,
48,48,48,48,48,48,48,48,48,48,48,48,48,48,48,
48,48,48,48,48,48,48,48,48,48,48,48,48,48,48,
48,48,48,48,48,48,48,48,48,48,48,48,48,48,48,
48,48,48,48,48,48,48,48,48,48,48,48,48,48,48,
48,48,48,48,48,48,48,48,48,48,48,48,48,48,48,
48,48,48,48,48,48,48,48,48,48,48,48,48,48,48,
48,48,48,48,48,48,48,48,48,48,48,48,48,48,48,
48,48,48,48,48,48,48,48,48,48,48,48,48,48,48
</data>
 </layer>
 <layer id="2" name="terrain" width="15" height="15">
  <data encoding="csv">
0,0,0,0,0,0,0,0,0,0,0,0,0,0,0,
0,50,50,49,0,0,0,0,0,0,0,49,50,50,0,
0,50,0,0,0,49,0,0,0,49,0,0,0,50,0,
0,49,0,0,0,0,0,50,0,0,0,0,0,49,0,
0,0,0,0,50,0,0,0,0,0,50,0,0,0,0,
0,0,49,0,0,0,0,0,0,0,0,0,49,0,0,
50,0,0,0,0,49,0,0,0,0,0,0,0,0,50,
50,0,0,50,0,0,0,0,0,0,0,50,0,0,50,
50,0,0,0,0,0,0,0,0,49,0,0,0,0,50,
0,0,49,0,0,0,0,0,0,0,0,0,49,0,0,
0,0,0,0,50,0,0,0,0,0,50,0,0,0,0,
0,49,0,0,0,0,0,50,0,0,0,0,0,49,0,
0,50,0,0,0,49,0,0,0,49,0,0,0,50,0,
0,50,50,49,0,0,0,0,0,0,0,49,50,50,0,
0,0,0,0,0,0,0,0,0,0,0,0,0,0,0
</data>
 </layer>
 <layer id="3" name="elevation" width="15" height="15">
  <data encoding="csv">
0,0,0,0,0,0,0,0,0,0,0,0,0,0,0,
0,0,0,0,0,0,0,0,0,0,0,0,0,0,0,
0,0,0,0,0,0,0,0,0,0,0,0,0,0,0,
0,0,0,51,0,0,0,0,0,0,0,51,0,0,0,
0,0,0,0,0,0,0,51,0,0,0,0,0,0,0,
0,0,0,0,0,51,0,51,0,51,0,0,0,0,0,
0,0,0,0,0,0,51,52,51,0,0,0,0,0,0,
0,0,51,0,51,51,52,51,52,51,51,0,51,0,0,
0,0,0,0,0,0,51,52,51,0,0,0,0,0,0,
0,0,0,0,0,51,0,51,0,51,0,0,0,0,0,
0,0,0,0,0,0,0,51,0,0,0,0,0,0,0,
0,0,0,51,0,0,0,0,0,0,0,51,0,0,0,
0,0,0,0,0,0,0,0,0,0,0,0,0,0,0,
0,0,0,0,0,0,0,0,0,0,0,0,0,0,0,
0,0,0,0,0,0,0,0,0,0,0,0,0,0,0
</data>
 </layer>
 <layer id="4" name="props_paint" width="15" height="15">
  <data encoding="csv">
46,0,0,0,25,0,0,0,0,0,25,0,0,0,25,
0,0,0,0,0,0,0,0,0,0,0,0,0,0,0,
0,0,0,0,0,0,0,45,0,0,0,0,0,0,0,
0,0,0,0,0,0,13,0,13,0,0,0,0,0,0,
45,0,0,0,0,0,0,0,0,0,0,0,0,0,45,
0,0,0,14,0,45,47,45,45,45,0,14,0,0,0,
0,0,0,0,47,0,0,46,0,0,47,0,0,0,0,
0,0,45,0,0,45,25,15,25,45,0,0,45,0,0,
0,0,0,0,25,0,0,46,0,0,25,0,0,0,0,
0,0,0,14,0,45,45,45,47,45,0,14,0,0,0,
45,0,0,0,0,0,0,0,0,0,0,0,0,0,45,
0,0,0,0,0,0,13,0,13,0,0,0,0,0,0,
0,0,0,0,0,0,0,45,0,0,0,0,0,0,0,
0,0,0,0,0,0,0,0,0,0,0,0,0,0,0,
25,0,0,0,25,0,0,0,0,0,25,0,0,0,46
</data>
 </layer>
 <layer id="5" name="meta" width="15" height="15">
  <data encoding="csv">
0,0,0,0,0,0,0,0,0,0,0,0,0,0,0,
0,0,0,0,0,0,0,0,0,0,0,0,0,0,0,
0,0,0,0,0,0,0,0,0,0,0,0,0,0,0,
0,0,0,0,0,0,0,0,0,0,0,0,0,0,0,
0,0,0,0,0,0,0,0,0,0,0,0,0,0,0,
0,0,0,0,0,0,0,0,0,0,0,0,0,0,0,
0,0,0,0,0,0,0,0,0,0,0,0,0,0,0,
0,0,0,0,0,0,0,0,0,0,0,0,0,0,0,
0,0,0,0,0,0,0,0,0,0,0,0,0,0,0,
0,0,0,0,0,0,0,0,0,0,0,0,0,0,0,
0,0,0,0,0,0,0,0,0,0,0,0,0,0,0,
0,0,0,0,0,0,0,0,0,0,0,0,0,0,0,
0,0,0,0,0,0,0,0,0,0,0,0,0,0,0,
0,0,0,0,0,0,0,0,0,0,0,0,0,0,0,
0,0,0,0,0,0,0,0,0,0,0,0,0,0,0
</data>
 </layer>
</map>
